X: 37843
T: Sophie's Dancing Feet
R: reel
M: 4/4
K: Dmajor
|:FGAF GABG|FAdf afdf|gabg efge|cdec ABAG|
FGAF GABG|FAdf afdf|gabg efge|1 cABc d2AG:|2 cABc d2cd||
|:eA~A2 eAgA|fA~A2 fAaA|gfeg fedf|efgf edcd|
eA~A2 eAgA|fA~A2 fAaA|bagf gfed|1 cABc d2cd:|2 cABc d2AG||

